X:1
T:Title
%%score ( 1 2 ) ( 3 4 )
L:1/8
Q:1/4=104
M:4/4
K:Bb
V:1 treble nm="Grand Piano, Soprano"
V:2 treble 
V:3 bass nm="Choir Pad, Gather the Reapers Home"
V:4 bass 
V:1
 [B,D][CE] [DF]2 [DB]2 [DB]2 | [DB][Fd] [Ec]2 [EG]2 [EG]2 | [Gc][GB] [FA]2- [FA][FA] [EG]2 | %3
w: By~John~Robson~Sweney * * * *|||
 [EF]2 [DF]4 [B,D]2 | [B,D][CE] [DF]2 [DB]2 [DB]2 | [DB][Fd] [Ec]2 [EG]2 [EG]2 | %6
w: |||
 [Gc][GB] [FA]2- [FA][FA] [EG]2 | [EA]2 [DB]6 | [DB]2 [Fc]2 [CF][CF]FG | [FA]F [FB]2 [Fc]2 [Fd]2 | %10
w: ||||
 [Fd]2 [Fe]2 dc [Fd]2 | [DB][DB] [Fc]2- [Fc][Fd] [Fc]2 | [B,D][CE] [DF]2 [DB][DB] [DB]2 | %13
w: |||
 [DB][Fd] [Ec]2 [EG]2 [EG]2 | cB [FA]2 [FA][FA] [EG]2 | [EA]2 [DB]6- | [DB]2 z2 z4 |] %17
w: ||||
V:2
 x8 | x8 | x8 | x8 | x8 | x8 | x8 | x8 | z4 z2 C2 | x8 | z4 F2 z2 | x8 | x8 | x8 | G2 z2 z4 | x8 | %16
 x8 |] %17
V:3
 [B,,F,][B,,F,] [B,,B,]2 [B,,F,]2 [B,,F,]2 | [B,,F,][B,,F,] [E,G,]2 [E,C]2 [E,C]2 | %2
 [E,E][E,C] [F,C]2- [F,C][F,C] [F,B,]2 | [F,A,]2 B,4 F,2 | %4
 [B,,F,][B,,F,] [B,,F,]2 [B,,F,]2 [B,,F,]2 | [B,,F,][B,,B,] [E,G,]2 [E,C]2 [E,C]2 | %6
 [E,E][E,C] [F,C]2- [F,C][F,C] [F,B,]2 | F,2 [B,,F,]6 | [B,,B,]2 [F,A,]2 [F,A,][F,A,]A,B, | %9
 [F,C][E,A,] [D,B,]2 [F,A,]2 B,2 | B,2 [A,C]2 B,2 B,2 | %11
 [B,,B,][B,,B,] [F,A,]2- [F,A,][F,B,]A,-[E,A,] | F,2 z2 z4 | [B,,F,][B,,B,] [E,G,]2 [E,C]2 [E,C]2 | %14
 [E,C]2 [F,C]2 [F,C][F,C] [F,B,]2 | [F,,F,]2 [B,,F,]6- | [B,,F,]2 z2 z4 |] %17
V:4
 x8 | x8 | x8 | z2 B,,6 | x8 | x8 | x8 | x8 | z4 z2 F,2 | x8 | x8 | z4 z2 .F,2 | %12
 D,C, [B,,B,]2 [B,,F,][B,,F,] [B,,F,]2 | x8 | x8 | x8 | x8 |] %17

